X: 1613
T: the Sweep's Hornpipe
R: hornpipe
B: O'Neill's 1850 #1613
O: J.O'Neill
Z: Michael D. Long, 10/09/98
Z: Michael Hogan
Z: Compacted via repeats and multiple endings [JC]
M: 2/4
L: 1/16
K: D
a>g |\
(3(faf) d>f A>dF>A | D>FA>d f2e>f |\
[1,3 g>be>g d>fA>F | G>BA>F E2 :|\
[2,4 g>fe>d c>AB>c | d2f2 d2 :|
|: z2 |\
F>EF>A B>cd>e | f>gf>e d>cd>B |\
[1,3 A2f2 f>ef2 | G2e2 e>de2 :|\
[2,4 A>fe>d c>AB>c | d>fe>c d2 :: a>g |\
(3(fgf) (3(efe) (3(ded) (3(cdc) |
(3(BcB) (3(ABA) \
[1,3 G2b>a | (3(gag) (3(fgf) (3(efe) (3(ded) | (3(cdc) (3(BcB) A2 :|\
[2,4 (3(GAG) (3(FGF) | E>ge>d c>AB>c | d2f2 d2 :|
